docs/themes/v2/source/images/new/logo8.svg

<svg fill="none" height="56" viewBox="0 0 156 56" width="156" xmlns="http://www.w3.org/2000/svg"><path d="m105.874 40.5034c.267.9005.64 1.7211 1.097 2.4688-.044.0233-.088.0495-.133.0729l-1.131.6216c-7.914 4.3456-15.7382 8.5604-22.5915 12.1379l-.2823.1487c-.1142.0812-.2712.0537-.3496-.0606-.0827-.1157-.0538-.2712.0591-.3525l.3345-.1941c8.4655-5.1853 16.3335-10.1255 22.9758-14.8276.007-.0052.015-.0096.021-.0151zm-62.897-30.2003c28.651-6.2593 96.025-16.64917 106.497-5.0986 4.665 5.1467-5.192 14.4489-19.861 24.2095-.65-2.5623-2.093-4.6084-4.119-5.9109 3.757-4.8837 4.531-9.0254 1.29-12.239-10.623-10.53305-59.9869-4.67309-83.7244-.4461l-.6622.1294c-.1391.0234-.2699-.0674-.2946-.2065-.0221-.1363.0688-.2685.2065-.2933z" fill="#bf3f32"/><path d="m119.763 23.2246c5.258 0 8.706 3.4909 8.924 8.8434 1.451-.2907 3.711-.9302 5.3-1.503-.263.8958-.532 2.1344-.806 3.3822l-.092.4158-.046.2073-.595 2.6491h.069c4.715-5.429 6.944-6.6544 8.621-6.6544.99 0 1.636.5177 1.677 1.6233.011.559-.2 1.6096-.635 3.2412l-1.624 5.9247c-.171.5865-.422 1.4691-.395 2.0611.009.4627.268.6458.545.6458.836 0 1.887-1.5412 2.393-2.3435-.011-.1263-.019-.2555-.024-.3873-.201-5.579 5.027-10.7643 9.307-10.7643 1.836 0 3.539.8027 3.615 2.7799.157 4.4376-6.073 5.7952-10.178 5.8875-.134.4626-.183.9294-.158 1.6385.066 1.8395 1.181 3.3884 3.481 3.3884 1.988 0 3.976-1.6013 4.981-3.1792l.504.3415c-1.272 2.5926-3.867 4.68-6.912 4.68-2.112 0-3.901-1.1917-4.462-3.4526-1.123 1.7686-2.412 3.4461-4.144 3.4461-.997 0-1.667-.4929-1.713-1.604-.022-.7325.223-1.7569.556-2.8942l1.462-5.0573c.174-.5218.671-2.342.645-3.1434-.022-.5562-.343-.7999-.807-.7999-1.033 0-2.715 1.4856-7.089 6.0403l-1.433 6.9339h-2.55c.386-1.4815.821-3.3568 1.22-5.1481l.993-4.3771c.104-.4585.601-2.4343.593-2.7097-.022-.464-.462-.5521-.931-.5521-.284 0-.917.0663-1.36.1232-.119 7.0055-5.122 13.2514-13.09 13.2514-5.28 0-8.734-3.511-8.927-8.9069-.241-6.9353 5.193-14.0276 13.085-14.0276zm-67.5316 5.0607c1.4579 0 2.357.0785 3.4487.643 1.0862.57 1.8421 1.3948 2.2551 2.4715.4185 1.0588.5052 2.2498.2794 3.5441-.3786 2.1506-1.4276 3.8469-3.1458 5.093-1.7057 1.2447-3.2394 1.5724-5.4325 1.5807-.7765 0-1.4249-.0813-1.9646-.2121-.5273-.1377-.9472-.3056-1.268-.5094-.3042-.2052-.6292-.4902-1.0477-.9459l-1.0408 5.9811h-6.2751l3.0976-17.4491h5.5868l-.4323 2.2278c.486-.665 1.2597-1.2117 2.3294-1.6564 1.078-.4406 2.2909-.7683 3.6098-.7683zm66.8886-4.1299c-5.591 0-9.2 7.9459-9.008 13.3143.135 4.0645 2.705 7.3924 6.059 7.3924 6.498 0 9.265-7.9789 9.072-13.3116-.137-4.0741-2.775-7.3951-6.123-7.3951zm-103.9361-1.0666c2.1422-.0234 3.7957.1185 6.2917 1.0616l-.8054 4.5217c-1.8365-1.0465-3.2023-1.3549-4.9466-1.3549-5.5468 0-7.7303 3.8897-7.82392 5.7319-.13078 2.7675 2.28402 4.2766 5.32382 4.2766 2.0486 0 3.2146-.1583 5.2852-.5687l-.8439 4.6608c-2.0747.2147-4.2981.3029-6.4362.3085-3.70339.0164-12.044973-1.7019-11.1638681-8.5312.8645841-6.7219 7.8514681-10.0278 15.1191681-10.1063zm74.7197 4.9694c4.7814 0 6.3054 1.37 6.2669 3.12-.0262.6389-.1391 1.202-.3139 2.1672l-1.1537 6.5237c-.0992.5755.1142 1.0271.6484 1.3479l-.0399.2258-6.6427.0124-.051-1.6591c-.9719.5879-2.1463 1.0767-3.1954 1.3617-1.0573.2781-1.9095.3924-3.1967.3924-2.1449 0-3.3647-.2148-4.2169-.9638-.866-.771-1.2831-1.2764-1.2363-2.3297.0234-.6113.3414-1.3975.7999-1.9345.4598-.5604 1.0876-.9156 1.7732-1.2378s1.4965-.5604 2.6557-.7559c1.1826-.1831 2.8237-.3814 5.0154-.5645 1.1413-.095 1.8434-.3552 2.1711-.4805.464-.1804.6471-.38.7145-.7545.1184-.6568-.0922-1.0492-.9747-1.2282-2.4065-.475-6.8809.3056-9.1952.8798l1.2515-3.3899c3.0618-.4474 5.9075-.7325 8.9198-.7325zm-57.3916-.0236c4.7841 0 6.315 1.3658 6.2668 3.1186-.0289.6375-.1376 1.1951-.3083 2.1699l-1.162 6.5154c-.0991.5783.1156 1.0326.6526 1.3438l-.0358.2547-6.6455-.0096-.0606-1.6578c-.9678.5852-2.1353 1.0768-3.1926 1.3659-1.0532.2699-1.9054.3896-3.1844.3896-2.1477 0-3.3771-.223-4.2251-.9665-.8619-.7683-1.279-1.2764-1.2391-2.3324.033-.6086.3483-1.3879.804-1.9345.4598-.5535 1.0863-.9157 1.7691-1.2351.6856-.3277 1.4924-.5631 2.6667-.749 1.1758-.1914 2.8127-.3814 5.0044-.5645 1.1524-.095 1.8545-.3621 2.1849-.4929.4571-.179.6374-.3759.7049-.7477.1225-.6705-.0923-1.0519-.9802-1.2295-2.3956-.4709-6.8823.3043-9.1952.8839l1.2569-3.3912c3.0509-.4461 5.9103-.7311 8.9185-.7311zm66.8967-4.7614 6.3133.1776-3.092 17.9765-6.4814.0096zm-32.6957 5.1452-2.306 13.0184h-6.3646l2.3074-13.0184zm10.62-4.1752-.709 4.099h3.2587l-.6182 2.6229-3.1623-.0082-1.9206 10.4697-.0299-.0002c-.2231-.0014-1.6578-.0103-3.1124-.0151l-.2567-.0008c-.3418-.001-.6809-.0017-1.0017-.0021h-.6843c-.7826.0011-1.3388.0061-1.3456.0182l1.9136-10.4436h-2.4203l.4915-2.6408h2.4836l.4571-2.6505zm11.9786 11.2089c-.285.0963-.6553.2023-1.1041.3056-.4461.106-1.2694.2382-2.4726.4351-.8178.1294-1.3988.3015-1.7127.5356-.3056.2231-.4873.5012-.552.8371-.0661.3594.0647.6499.3634.8661.3222.2217.8536.3291 1.6011.3291.5549 0 1.0973-.0826 1.6328-.2506.5425-.1818.9927-.4131 1.3451-.7119.2437-.2216.4337-.5094.5658-.8467.0826-.2176.1928-.7188.3332-1.4994zm-57.393-.032c-.2822.106-.647.212-1.0986.3057-.4502.1019-1.2735.2492-2.4685.4378-.8233.1281-1.3932.3015-1.7195.5342-.3112.2314-.4943.5054-.548.8413-.0633.358.0537.643.3635.8674.3153.2203.8439.3332 1.5901.3332.559 0 1.1083-.0895 1.6397-.2588.5369-.1763.9899-.4158 1.3396-.7119.2547-.2203.4378-.5025.5754-.8398.0785-.2217.1928-.7215.3263-1.5091zm119.9994-4.1079c-2.61 0-5.386 5.1137-5.865 7.1749 4.283 0 7.616-2.55 7.511-5.4194-.035-1.0505-.563-1.7555-1.646-1.7555zm-102.2914.1564c-.8343 0-1.5887.252-2.2606.7587-.6635.5067-1.0862 1.2447-1.2583 2.2291-.1996 1.136-.0826 1.9511.3676 2.4564.4543.4998 1.1083.7504 1.9673.7504.5783 0 1.1785-.1033 1.6191-.3208.5452-.2878.921-.5921 1.2459-1.0712.3511-.5053.581-1.0657.6994-1.7184.1817-1.0271.0289-1.7982-.4488-2.3049-.4626-.5218-1.1014-.7793-1.9316-.7793zm14.841-8.0041c1.8902 0 3.2697.8688 3.088 1.9386-.1996 1.0712-1.8847 1.9372-3.7777 1.9372-1.8958 0-3.267-.866-3.0756-1.9372.1899-1.0698 1.8792-1.9386 3.7653-1.9386z" fill="#1d4873"/></svg>

<svg width="156" height="56" viewBox="0 0 156 56" fill="none" xmlns="http://www.w3.org/2000/svg">
<path d="M105.874 40.5034C106.141 41.4039 106.514 42.2245 106.971 42.9722C106.927 42.9955 106.883 43.0217 106.838 43.0451L105.707 43.6667C97.793 48.0123 89.9688 52.2271 83.1155 55.8046L82.8332 55.9533C82.719 56.0345 82.562 56.007 82.4836 55.8927C82.4009 55.777 82.4298 55.6215 82.5427 55.5402L82.8772 55.3461C91.3427 50.1608 99.2107 45.2206 105.853 40.5185C105.86 40.5133 105.868 40.5089 105.874 40.5034ZM42.977 10.3031C71.628 4.0438 139.002 -6.34607 149.474 5.2045C154.139 10.3512 144.282 19.6534 129.613 29.414C128.963 26.8517 127.52 24.8056 125.494 23.5031C129.251 18.6194 130.025 14.4777 126.784 11.2641C116.161 0.73105 66.7971 6.59101 43.0596 10.818L42.3974 10.9474C42.2583 10.9708 42.1275 10.88 42.1028 10.7409C42.0807 10.6046 42.1716 10.4724 42.3093 10.4476L42.977 10.3031Z" fill="#BF3F32"/>
<path d="M119.763 23.2246C125.021 23.2246 128.469 26.7155 128.687 32.068C130.138 31.7773 132.398 31.1378 133.987 30.565C133.724 31.4608 133.455 32.6994 133.181 33.9472L133.089 34.363L133.043 34.5703L132.448 37.2194H132.517C137.232 31.7904 139.461 30.565 141.138 30.565C142.128 30.565 142.774 31.0827 142.815 32.1883C142.826 32.7473 142.615 33.7979 142.18 35.4295L140.556 41.3542C140.385 41.9407 140.134 42.8233 140.161 43.4153C140.17 43.878 140.429 44.0611 140.706 44.0611C141.542 44.0611 142.593 42.5199 143.099 41.7176C143.088 41.5913 143.08 41.4621 143.075 41.3303C142.874 35.7513 148.102 30.566 152.382 30.566C154.218 30.566 155.921 31.3687 155.997 33.3459C156.154 37.7835 149.924 39.1411 145.819 39.2334C145.685 39.696 145.636 40.1628 145.661 40.8719C145.727 42.7114 146.842 44.2603 149.142 44.2603C151.13 44.2603 153.118 42.659 154.123 41.0811L154.627 41.4226C153.355 44.0152 150.76 46.1026 147.715 46.1026C145.603 46.1026 143.814 44.9109 143.253 42.65C142.13 44.4186 140.841 46.0961 139.109 46.0961C138.112 46.0961 137.442 45.6032 137.396 44.4921C137.374 43.7596 137.619 42.7352 137.952 41.5979L139.414 36.5406C139.588 36.0188 140.085 34.1986 140.059 33.3972C140.037 32.841 139.716 32.5973 139.252 32.5973C138.219 32.5973 136.537 34.0829 132.163 38.6376L130.73 45.5715H128.18C128.566 44.09 129.001 42.2147 129.4 40.4234L130.393 36.0463C130.497 35.5878 130.994 33.612 130.986 33.3366C130.964 32.8726 130.524 32.7845 130.055 32.7845C129.771 32.7845 129.138 32.8508 128.695 32.9077C128.576 39.9132 123.573 46.1591 115.605 46.1591C110.325 46.1591 106.871 42.6481 106.678 37.2522C106.437 30.3169 111.871 23.2246 119.763 23.2246ZM52.2314 28.2853C53.6893 28.2853 54.5884 28.3638 55.6801 28.9283C56.7663 29.4983 57.5222 30.3231 57.9352 31.3998C58.3537 32.4586 58.4404 33.6496 58.2146 34.9439C57.836 37.0945 56.787 38.7908 55.0688 40.0369C53.3631 41.2816 51.8294 41.6093 49.6363 41.6176C48.8598 41.6176 48.2114 41.5363 47.6717 41.4055C47.1444 41.2678 46.7245 41.0999 46.4037 40.8961C46.0995 40.6909 45.7745 40.4059 45.356 39.9502L44.3152 45.9313H38.0401L41.1377 28.4822H46.7245L46.2922 30.71C46.7782 30.045 47.5519 29.4983 48.6216 29.0536C49.6996 28.613 50.9125 28.2853 52.2314 28.2853ZM119.12 24.1554C113.529 24.1554 109.92 32.1013 110.112 37.4697C110.247 41.5342 112.817 44.8621 116.171 44.8621C122.669 44.8621 125.436 36.8832 125.243 31.5505C125.106 27.4764 122.468 24.1554 119.12 24.1554ZM15.1839 23.0888C17.3261 23.0654 18.9796 23.2073 21.4756 24.1504L20.6702 28.6721C18.8337 27.6256 17.4679 27.3172 15.7236 27.3172C10.1768 27.3172 7.9933 31.2069 7.89968 33.0491C7.7689 35.8166 10.1837 37.3257 13.2235 37.3257C15.2721 37.3257 16.4381 37.1674 18.5087 36.757L17.6648 41.4178C15.5901 41.6325 13.3667 41.7207 11.2286 41.7263C7.52521 41.7427 -0.816373 40.0244 0.0647319 33.1951C0.929316 26.4732 7.9162 23.1673 15.1839 23.0888ZM89.9036 28.0582C94.685 28.0582 96.209 29.4282 96.1705 31.1782C96.1443 31.8171 96.0314 32.3802 95.8566 33.3454L94.7029 39.8691C94.6037 40.4446 94.8171 40.8962 95.3513 41.217L95.3114 41.4428L88.6687 41.4552L88.6177 39.7961C87.6458 40.384 86.4714 40.8728 85.4223 41.1578C84.365 41.4359 83.5128 41.5502 82.2256 41.5502C80.0807 41.5502 78.8609 41.3354 78.0087 40.5864C77.1427 39.8154 76.7256 39.31 76.7724 38.2567C76.7958 37.6454 77.1138 36.8592 77.5723 36.3222C78.0321 35.7618 78.6599 35.4066 79.3455 35.0844C80.0311 34.7622 80.842 34.524 82.0012 34.3285C83.1838 34.1454 84.8249 33.9471 87.0166 33.764C88.1579 33.669 88.86 33.4088 89.1877 33.2835C89.6517 33.1031 89.8348 32.9035 89.9022 32.529C90.0206 31.8722 89.81 31.4798 88.9275 31.3008C86.521 30.8258 82.0466 31.6064 79.7323 32.1806L80.9838 28.7907C84.0456 28.3433 86.8913 28.0582 89.9036 28.0582ZM32.512 28.0346C37.2961 28.0346 38.827 29.4004 38.7788 31.1532C38.7499 31.7907 38.6412 32.3483 38.4705 33.3231L37.3085 39.8385C37.2094 40.4168 37.4241 40.8711 37.9611 41.1823L37.9253 41.437L31.2798 41.4274L31.2192 39.7696C30.2514 40.3548 29.0839 40.8464 28.0266 41.1355C26.9734 41.4054 26.1212 41.5251 24.8422 41.5251C22.6945 41.5251 21.4651 41.3021 20.6171 40.5586C19.7552 39.7903 19.3381 39.2822 19.378 38.2262C19.411 37.6176 19.7263 36.8383 20.182 36.2917C20.6418 35.7382 21.2683 35.376 21.9511 35.0566C22.6367 34.7289 23.4435 34.4935 24.6178 34.3076C25.7936 34.1162 27.4305 33.9262 29.6222 33.7431C30.7746 33.6481 31.4767 33.381 31.8071 33.2502C32.2642 33.0712 32.4445 32.8743 32.512 32.5025C32.6345 31.832 32.4197 31.4506 31.5318 31.273C29.1362 30.8021 24.6495 31.5773 22.3366 32.1569L23.5935 28.7657C26.6444 28.3196 29.5038 28.0346 32.512 28.0346ZM99.4087 23.2732L105.722 23.4508L102.63 41.4273L96.1486 41.4369L99.4087 23.2732ZM66.713 28.4184L64.407 41.4368H58.0424L60.3498 28.4184H66.713ZM77.333 24.2432L76.624 28.3422H79.8827L79.2645 30.9651L76.1022 30.9569L74.1816 41.4266L74.1517 41.4264C73.9286 41.425 72.4939 41.4161 71.0393 41.4113L70.7826 41.4105C70.4408 41.4095 70.1017 41.4088 69.7809 41.4084L69.0966 41.4084C68.314 41.4095 67.7578 41.4145 67.751 41.4266L69.6646 30.983H67.2443L67.7358 28.3422H70.2194L70.6765 25.6917L77.333 24.2432ZM89.3116 35.4521C89.0266 35.5484 88.6563 35.6544 88.2075 35.7577C87.7614 35.8637 86.9381 35.9959 85.7349 36.1928C84.9171 36.3222 84.3361 36.4943 84.0222 36.7284C83.7166 36.9515 83.5349 37.2296 83.4702 37.5655C83.4041 37.9249 83.5349 38.2154 83.8336 38.4316C84.1558 38.6533 84.6872 38.7607 85.4347 38.7607C85.9896 38.7607 86.532 38.6781 87.0675 38.5101C87.61 38.3283 88.0602 38.097 88.4126 37.7982C88.6563 37.5766 88.8463 37.2888 88.9784 36.9515C89.061 36.7339 89.1712 36.2327 89.3116 35.4521ZM31.9186 35.4201C31.6364 35.5261 31.2716 35.6321 30.82 35.7258C30.3698 35.8277 29.5465 35.975 28.3515 36.1636C27.5282 36.2917 26.9583 36.4651 26.632 36.6978C26.3208 36.9292 26.1377 37.2032 26.084 37.5391C26.0207 37.8971 26.1377 38.1821 26.4475 38.4065C26.7628 38.6268 27.2914 38.7397 28.0376 38.7397C28.5966 38.7397 29.1459 38.6502 29.6773 38.4809C30.2142 38.3046 30.6672 38.0651 31.0169 37.769C31.2716 37.5487 31.4547 37.2665 31.5923 36.9292C31.6708 36.7075 31.7851 36.2077 31.9186 35.4201ZM151.918 31.3122C149.308 31.3122 146.532 36.4259 146.053 38.4871C150.336 38.4871 153.669 35.9371 153.564 33.0677C153.529 32.0172 153.001 31.3122 151.918 31.3122ZM49.6266 31.4686C48.7923 31.4686 48.0379 31.7206 47.366 32.2273C46.7025 32.734 46.2798 33.472 46.1077 34.4564C45.9081 35.5924 46.0251 36.4075 46.4753 36.9128C46.9296 37.4126 47.5836 37.6632 48.4426 37.6632C49.0209 37.6632 49.6211 37.5599 50.0617 37.3424C50.6069 37.0546 50.9827 36.7503 51.3076 36.2712C51.6587 35.7659 51.8886 35.2055 52.007 34.5528C52.1887 33.5257 52.0359 32.7546 51.5582 32.2479C51.0956 31.7261 50.4568 31.4686 49.6266 31.4686ZM64.4676 23.4645C66.3578 23.4645 67.7373 24.3333 67.5556 25.4031C67.356 26.4743 65.6709 27.3403 63.7779 27.3403C61.8821 27.3403 60.5109 26.4743 60.7023 25.4031C60.8922 24.3333 62.5815 23.4645 64.4676 23.4645Z" fill="#1D4873"/>
</svg>
